Sweet-Rainbow/icons/distributor-logo-alpine.svg

<?xml version="1.0" encoding="UTF-8" standalone="no"?>
<!-- Generator: Gravit.io -->

<svg
   xmlns:dc="http://purl.org/dc/elements/1.1/"
   xmlns:cc="http://creativecommons.org/ns#"
   xmlns:rdf="http://www.w3.org/1999/02/22-rdf-syntax-ns#"
   xmlns:svg="http://www.w3.org/2000/svg"
   xmlns="http://www.w3.org/2000/svg"
   xmlns:sodipodi="http://sodipodi.sourceforge.net/DTD/sodipodi-0.dtd"
   xmlns:inkscape="http://www.inkscape.org/namespaces/inkscape"
   style="isolation:isolate"
   viewBox="0 0 36 36"
   width="48"
   height="48"
   version="1.1"
   id="svg9"
   sodipodi:docname="distributor-logo-alpine.svg"
   inkscape:version="0.92.4 (5da689c313, 2019-01-14)">
  <metadata
     id="metadata15">
    <rdf:RDF>
      <cc:Work
         rdf:about="">
        <dc:format>image/svg+xml</dc:format>
        <dc:type
           rdf:resource="http://purl.org/dc/dcmitype/StillImage" />
        <dc:title></dc:title>
      </cc:Work>
    </rdf:RDF>
  </metadata>
  <defs
     id="defs13" />
  <sodipodi:namedview
     pagecolor="#ffffff"
     bordercolor="#666666"
     borderopacity="1"
     objecttolerance="10"
     gridtolerance="10"
     guidetolerance="10"
     inkscape:pageopacity="0"
     inkscape:pageshadow="2"
     inkscape:window-width="640"
     inkscape:window-height="480"
     id="namedview11"
     showgrid="false"
     inkscape:zoom="29.365243"
     inkscape:cx="25.325443"
     inkscape:cy="32"
     inkscape:current-layer="svg9"
     units="px" />
  <linearGradient
     id="_lgradient_13"
     x1="0"
     y1="0.5"
     x2="0.90748805"
     y2="0.92007786"
     gradientTransform="matrix(47.515,0,0,42.206,0.245,2.926)"
     gradientUnits="userSpaceOnUse">
    <stop
       offset="0%"
       stop-opacity="1"
       style="stop-color:rgb(0,196,255)"
       id="stop2" />
    <stop
       offset="83.88839793817618%"
       stop-opacity="1"
       style="stop-color:rgb(0,114,255)"
       id="stop4" />
  </linearGradient>
  <g
     id="g826"
     transform="matrix(0.75766137,0,0,0.75766137,-0.18553366,-0.20587383)">
    <path
       id="path7"
       d="m 20.676,7.113 v 0 C 19.516,7.192 18.512,6.318 18.434,5.162 v 0 c -0.078,-1.155 0.801,-2.157 1.96,-2.236 v 0 h 13.989 c 1.159,0 2.538,0.832 3.078,1.856 l 9.928,18.824 c 0.54,1.024 0.483,2.655 -0.127,3.64 l -9.99,16.119 c -0.61,0.984 -2.046,1.776 -3.205,1.767 l -7.12,-0.058 h -9.97 c -1.158,0 -1.784,-0.886 -1.395,-1.978 l 0.255,-0.718 c 0.388,-1.092 1.644,-1.988 2.802,-2.001 L 34.29,40.208 43.523,25.311 34.064,7.256 Z m -9.642,29.496 v 0 c 0.525,1.034 0.115,2.301 -0.914,2.829 v 0 C 9.092,39.965 7.828,39.558 7.3,38.529 v 0 L 0.643,26.555 C 0.08,25.543 0.119,23.922 0.729,22.937 L 8.703,10.072 c 0.61,-0.985 1.913,-1.303 2.908,-0.71 h 10e-4 c 0.995,0.593 1.308,1.874 0.697,2.859 L 4.435,24.925 Z M 19,17 8,29 h 5 l 6,-7 6,7 h 5 L 26.652,25.348 29,23 l 6,6 h 5 L 29,18 23.914,22.359 Z m -1,9 -3,3 h 3 z"
       style="fill:url(#_lgradient_13);fill-rule:evenodd"
       inkscape:connector-curvature="0" />
  </g>
</svg>

<?xml version="1.0" encoding="UTF-8" standalone="no"?><!-- Generator: Gravit.io --><svg xmlns="http://www.w3.org/2000/svg" xmlns:xlink="http://www.w3.org/1999/xlink" style="isolation:isolate" viewBox="0 0 48 48" width="48pt" height="48pt"><linearGradient id="_lgradient_13" x1="0" y1="0.5" x2="0.9074880558539661" y2="0.9200778838291643" gradientTransform="matrix(47.515,0,0,42.206,0.245,2.926)" gradientUnits="userSpaceOnUse"><stop offset="0%" stop-opacity="1" style="stop-color:rgb(0,196,255)"/><stop offset="83.88839793817618%" stop-opacity="1" style="stop-color:rgb(0,114,255)"/></linearGradient><path d=" M 20.676 7.113 L 20.676 7.113 C 19.516 7.192 18.512 6.318 18.434 5.162 L 18.434 5.162 C 18.356 4.007 19.235 3.005 20.394 2.926 L 20.394 2.926 L 34.383 2.926 C 35.542 2.926 36.921 3.758 37.461 4.782 L 47.389 23.606 C 47.929 24.63 47.872 26.261 47.262 27.246 L 37.272 43.365 C 36.662 44.349 35.226 45.141 34.067 45.132 L 26.947 45.074 L 16.977 45.074 C 15.819 45.074 15.193 44.188 15.582 43.096 L 15.837 42.378 C 16.225 41.286 17.481 40.39 18.639 40.377 L 34.29 40.208 L 43.523 25.311 L 34.064 7.256 L 20.676 7.113 L 20.676 7.113 Z  M 11.034 36.609 L 11.034 36.609 C 11.559 37.643 11.149 38.91 10.12 39.438 L 10.12 39.438 C 9.092 39.965 7.828 39.558 7.3 38.529 L 7.3 38.529 L 0.643 26.555 C 0.08 25.543 0.119 23.922 0.729 22.937 L 8.703 10.072 C 9.313 9.087 10.616 8.769 11.611 9.362 L 11.612 9.362 C 12.607 9.955 12.92 11.236 12.309 12.221 L 4.435 24.925 L 11.034 36.609 L 11.034 36.609 Z  M 19 17 L 8 29 L 13 29 L 19 22 L 25 29 L 30 29 L 26.652 25.348 L 29 23 L 35 29 L 40 29 L 29 18 L 23.914 22.359 L 19 17 L 19 17 Z  M 18 26 L 15 29 L 18 29 L 18 26 L 18 26 Z " fill-rule="evenodd" fill="url(#_lgradient_13)"/></svg>
